svgs/thin/circle-ampersand.svg

<svg xmlns="http://www.w3.org/2000/svg" viewBox="0 0 512 512"><!--! Font Awesome Pro 6.3.0 by @fontawesome - https://fontawesome.com License - https://fontawesome.com/license (Commercial License) Copyright 2023 Fonticons, Inc. --><path d="M322.9 325.9l42.51-60.1c2.562-3.609 1.688-8.609-1.906-11.16c-3.625-2.562-8.594-1.719-11.16 1.906l-40.62 57.43L243.3 241.1l36.91-29.75c11.47-8.938 18.06-22.25 18.06-36.52C298.3 149 276.6 128 249.1 128H227.7C201.1 128 179.4 149 179.4 174.8c0 14.03 5.375 27.44 15.12 37.7l25.28 26.94L167.3 281.8c-14.09 10.94-22.16 27.25-22.16 44.77C145.2 358.2 171.8 384 204.4 384h38.88c24.09 0 46.63-11.48 60.22-30.72l9.902-14l39.57 42.19c3.094 3.25 8.125 3.391 11.31 .3594c3.219-3.016 3.375-8.078 .375-11.3L322.9 325.9zM206.2 201.6C199.3 194.3 195.4 184.8 195.4 174.8C195.4 157.8 209.9 144 227.7 144h22.28c17.81 0 32.28 13.84 32.28 30.84c0 9.297-4.344 18.02-12 23.97l-37.97 30.61L206.2 201.6zM290.5 344C279.9 359 262.2 368 243.3 368H204.4c-23.88 0-43.28-18.58-43.28-41.42c0-12.53 5.812-24.25 16.09-32.22l53.56-43.17l71.45 76.18L290.5 344zM256 0C114.6 0 0 114.6 0 256s114.6 256 256 256s256-114.6 256-256S397.4 0 256 0zM256 496c-132.3 0-240-107.7-240-240S123.7 16 256 16s240 107.7 240 240S388.3 496 256 496z"/></svg>

<svg xmlns="http://www.w3.org/2000/svg" viewBox="0 0 512 512"><!-- Font Awesome Pro 6.0.0-alpha2 by @fontawesome - https://fontawesome.com License - https://fontawesome.com/license (Commercial License) --><path d="M322.869 325.941L365.375 265.844C367.937 262.234 367.062 257.234 363.469 254.687C359.844 252.125 354.875 252.969 352.312 256.594L311.693 314.023L243.312 241.109L280.219 211.359C291.687 202.422 298.281 189.109 298.281 174.844C298.281 149.016 276.625 128 250 128H227.719C201.094 128 179.438 149.016 179.438 174.844C179.438 188.875 184.813 202.281 194.562 212.547L219.844 239.484L167.312 281.812C153.219 292.75 145.156 309.062 145.156 326.578C145.156 358.234 171.75 384 204.438 384H243.313C267.406 384 289.938 372.516 303.531 353.281L313.434 339.281L353 381.469C356.094 384.719 361.125 384.859 364.312 381.828C367.531 378.813 367.688 373.75 364.688 370.531L322.869 325.941ZM206.219 201.578C199.25 194.25 195.438 184.75 195.438 174.844C195.438 157.844 209.906 144 227.719 144H250C267.812 144 282.281 157.844 282.281 174.844C282.281 184.141 277.937 192.859 270.281 198.812L232.312 229.422L206.219 201.578ZM290.469 344.031C279.875 359.047 262.219 368 243.312 368H204.438C180.562 368 161.156 349.422 161.156 326.578C161.156 314.047 166.969 302.328 177.25 294.359L230.812 251.188L302.258 327.365L290.469 344.031ZM256 16C123.451 16 16 123.451 16 256S123.451 496 256 496S496 388.549 496 256S388.549 16 256 16ZM256 480C132.486 480 32 379.514 32 256S132.486 32 256 32S480 132.486 480 256S379.514 480 256 480Z"/></svg>
